assets/1. Faces/Palm up hand/Dark/Color/palm_up_hand_color_dark.svg

<svg width="100%" height="100%" viewBox="0 0 32 32" fill="none" xmlns="http://www.w3.org/2000/svg">
<g filter="url(#filter0_i_20020_6669)">
<path d="M15.5006 14.8668C14.4034 15.2595 13.89 16.4906 14.2813 17.6323L16.25 22.4682L19.8765 21.1524L18.1941 16.2298C17.8054 15.0844 16.5983 14.4773 15.5006 14.8668Z" fill="url(#paint0_radial_20020_6669)"/>
<path d="M15.5006 14.8668C14.4034 15.2595 13.89 16.4906 14.2813 17.6323L16.25 22.4682L19.8765 21.1524L18.1941 16.2298C17.8054 15.0844 16.5983 14.4773 15.5006 14.8668Z" fill="url(#paint1_radial_20020_6669)"/>
</g>
<g filter="url(#filter1_i_20020_6669)">
<path d="M19.4305 12.9312C18.295 13.0463 17.4685 14.0576 17.5805 15.193L18.071 20.0829L22.1797 19.6711L21.6922 14.7782C21.5772 13.6428 20.5659 12.8162 19.4305 12.9312Z" fill="url(#paint2_radial_20020_6669)"/>
<path d="M19.4305 12.9312C18.295 13.0463 17.4685 14.0576 17.5805 15.193L18.071 20.0829L22.1797 19.6711L21.6922 14.7782C21.5772 13.6428 20.5659 12.8162 19.4305 12.9312Z" fill="url(#paint3_radial_20020_6669)"/>
<path d="M19.4305 12.9312C18.295 13.0463 17.4685 14.0576 17.5805 15.193L18.071 20.0829L22.1797 19.6711L21.6922 14.7782C21.5772 13.6428 20.5659 12.8162 19.4305 12.9312Z" fill="url(#paint4_linear_20020_6669)"/>
</g>
<g filter="url(#filter2_i_20020_6669)">
<path d="M24.0906 12.0449C22.9788 11.8375 21.9091 12.5737 21.7017 13.6855L21.0822 17.7831C21.0063 18.2852 20.7423 18.7395 20.3437 19.0541L20.1254 19.2264H24.8418L25.7312 14.4337C25.9356 13.3189 25.2024 12.2492 24.0906 12.0449Z" fill="url(#paint5_radial_20020_6669)"/>
<path d="M24.0906 12.0449C22.9788 11.8375 21.9091 12.5737 21.7017 13.6855L21.0822 17.7831C21.0063 18.2852 20.7423 18.7395 20.3437 19.0541L20.1254 19.2264H24.8418L25.7312 14.4337C25.9356 13.3189 25.2024 12.2492 24.0906 12.0449Z" fill="url(#paint6_radial_20020_6669)"/>
</g>
<g filter="url(#filter3_ii_20020_6669)">
<path d="M12.625 15.9543C12.625 17.656 14.2969 18.8355 16.1094 18.8355H19.7656C20.5664 18.8355 20.9401 18.6981 21.4219 18.2144L25.4516 14.7596C26.5143 13.7739 28.0543 13.4056 29.2242 14.5098C30.4674 15.6832 30.0366 17.2702 28.9129 18.2816L23.0461 23.3827C21.6395 24.6972 20.7866 25.1967 19.0368 25.1967L10.3214 25.2256C5.49579 25.2545 2.04688 22.7652 2.04688 18.3746C2.04688 16.2496 3.64062 14.0074 5.04688 12.5933L7.10938 10.5933C8.60156 9.1949 9.77344 8.55428 11.2031 8.17928C12.6328 7.80428 14.5078 8.03865 14.5078 8.03865C15.0986 8.03865 15.563 7.96085 16.0703 7.65584C16.9757 7.11003 18.2675 7.11088 19.0156 7.85896C19.6562 8.41365 20.0156 9.35896 19.7344 10.3355C19.4874 10.9506 19.2244 11.239 18.6953 11.6636C17.6178 12.53 16.0352 12.8803 14.729 12.984C13.2812 13.234 12.625 14.2687 12.625 15.9543Z" fill="url(#paint7_radial_20020_6669)"/>
</g>
<path d="M12.625 15.9543C12.625 17.656 14.2969 18.8355 16.1094 18.8355H19.7656C20.5664 18.8355 20.9401 18.6981 21.4219 18.2144L25.4516 14.7596C26.5143 13.7739 28.0543 13.4056 29.2242 14.5098C30.4674 15.6832 30.0366 17.2702 28.9129 18.2816L23.0461 23.3827C21.6395 24.6972 20.7866 25.1967 19.0368 25.1967L10.3214 25.2256C5.49579 25.2545 2.04688 22.7652 2.04688 18.3746C2.04688 16.2496 3.64062 14.0074 5.04688 12.5933L7.10938 10.5933C8.60156 9.1949 9.77344 8.55428 11.2031 8.17928C12.6328 7.80428 14.5078 8.03865 14.5078 8.03865C15.0986 8.03865 15.563 7.96085 16.0703 7.65584C16.9757 7.11003 18.2675 7.11088 19.0156 7.85896C19.6562 8.41365 20.0156 9.35896 19.7344 10.3355C19.4874 10.9506 19.2244 11.239 18.6953 11.6636C17.6178 12.53 16.0352 12.8803 14.729 12.984C13.2812 13.234 12.625 14.2687 12.625 15.9543Z" fill="url(#paint8_radial_20020_6669)"/>
<g filter="url(#filter4_f_20020_6669)">
<path d="M21.0399 22.5334L27.7803 16.5923C28.0984 16.3119 28.1057 15.8184 27.796 15.5287C27.5267 15.2769 27.1105 15.2698 26.8328 15.5122L21.9785 19.7506C21.5668 20.11 21.0259 20.2854 20.4817 20.2358L14.2101 19.6645C12.1501 19.4768 10.573 17.7495 10.573 15.681V15.4944C10.573 14.547 10.9093 13.6303 11.522 12.9077L11.7095 12.6866C12.2039 12.1034 12.9023 11.731 13.6621 11.6455L15.5685 11.4309C16.2192 11.3576 16.8281 11.0735 17.3022 10.6218L18.2528 9.71621C18.4788 9.50089 18.4807 9.1409 18.2569 8.92327C18.0607 8.73249 17.7542 8.71484 17.5374 8.88185L17.2601 9.0955C16.6925 9.53278 15.9816 9.74135 15.2677 9.68002L12.9708 9.48269C11.7849 9.38081 10.6152 9.81236 9.77968 10.6601L5.9907 14.5041C5.02996 15.4788 4.63424 16.877 4.94169 18.2106L5.21806 19.4094C5.72878 21.6247 7.66974 23.2166 9.94218 23.2839L18.2765 23.5309C19.2908 23.5609 20.2786 23.2043 21.0399 22.5334Z" fill="url(#paint9_radial_20020_6669)"/>
</g>
<defs>
<filter id="filter0_i_20020_6669" x="14.1509" y="14.749" width="5.72552" height="7.7193" filterUnits="userSpaceOnUse" color-interpolation-filters="sRGB">
<feFlood flood-opacity="0" result="BackgroundImageFix"/>
<feBlend mode="normal" in="SourceGraphic" in2="BackgroundImageFix" result="shape"/>
<feColorMatrix in="SourceAlpha" type="matrix" values="0 0 0 0 0 0 0 0 0 0 0 0 0 0 0 0 0 0 127 0" result="hardAlpha"/>
<feOffset/>
<feGaussianBlur stdDeviation="0.25"/>
<feComposite in2="hardAlpha" operator="arithmetic" k2="-1" k3="1"/>
<feColorMatrix type="matrix" values="0 0 0 0 0.286275 0 0 0 0 0.223529 0 0 0 0 0.211765 0 0 0 1 0"/>
<feBlend mode="normal" in2="shape" result="effect1_innerShadow_20020_6669"/>
</filter>
<filter id="filter1_i_20020_6669" x="17.5703" y="12.9205" width="4.60938" height="7.16235" filterUnits="userSpaceOnUse" color-interpolation-filters="sRGB">
<feFlood flood-opacity="0" result="BackgroundImageFix"/>
<feBlend mode="normal" in="SourceGraphic" in2="BackgroundImageFix" result="shape"/>
<feColorMatrix in="SourceAlpha" type="matrix" values="0 0 0 0 0 0 0 0 0 0 0 0 0 0 0 0 0 0 127 0" result="hardAlpha"/>
<feOffset/>
<feGaussianBlur stdDeviation="0.25"/>
<feComposite in2="hardAlpha" operator="arithmetic" k2="-1" k3="1"/>
<feColorMatrix type="matrix" values="0 0 0 0 0.305882 0 0 0 0 0.254902 0 0 0 0 0.25098 0 0 0 1 0"/>
<feBlend mode="normal" in2="shape" result="effect1_innerShadow_20020_6669"/>
</filter>
<filter id="filter2_i_20020_6669" x="20.1254" y="12.0099" width="5.64001" height="7.21655" filterUnits="userSpaceOnUse" color-interpolation-filters="sRGB">
<feFlood flood-opacity="0" result="BackgroundImageFix"/>
<feBlend mode="normal" in="SourceGraphic" in2="BackgroundImageFix" result="shape"/>
<feColorMatrix in="SourceAlpha" type="matrix" values="0 0 0 0 0 0 0 0 0 0 0 0 0 0 0 0 0 0 127 0" result="hardAlpha"/>
<feOffset/>
<feGaussianBlur stdDeviation="0.25"/>
<feComposite in2="hardAlpha" operator="arithmetic" k2="-1" k3="1"/>
<feColorMatrix type="matrix" values="0 0 0 0 0.235294 0 0 0 0 0.176471 0 0 0 0 0.164706 0 0 0 1 0"/>
<feBlend mode="normal" in2="shape" result="effect1_innerShadow_20020_6669"/>
</filter>
<filter id="filter3_ii_20020_6669" x="2.04688" y="6.01917" width="29.1807" height="19.2067" filterUnits="userSpaceOnUse" color-interpolation-filters="sRGB">
<feFlood flood-opacity="0" result="BackgroundImageFix"/>
<feBlend mode="normal" in="SourceGraphic" in2="BackgroundImageFix" result="shape"/>
<feColorMatrix in="SourceAlpha" type="matrix" values="0 0 0 0 0 0 0 0 0 0 0 0 0 0 0 0 0 0 127 0" result="hardAlpha"/>
<feOffset dx="1.25" dy="-1.25"/>
<feGaussianBlur stdDeviation="0.75"/>
<feComposite in2="hardAlpha" operator="arithmetic" k2="-1" k3="1"/>
<feColorMatrix type="matrix" values="0 0 0 0 0.239216 0 0 0 0 0.129412 0 0 0 0 0.196078 0 0 0 1 0"/>
<feBlend mode="normal" in2="shape" result="effect1_innerShadow_20020_6669"/>
<feColorMatrix in="SourceAlpha" type="matrix" values="0 0 0 0 0 0 0 0 0 0 0 0 0 0 0 0 0 0 127 0" result="hardAlpha"/>
<feOffset/>
<feGaussianBlur stdDeviation="0.25"/>
<feComposite in2="hardAlpha" operator="arithmetic" k2="-1" k3="1"/>
<feColorMatrix type="matrix" values="0 0 0 0 0.290196 0 0 0 0 0.188235 0 0 0 0 0.305882 0 0 0 1 0"/>
<feBlend mode="normal" in2="effect1_innerShadow_20020_6669" result="effect2_innerShadow_20020_6669"/>
</filter>
<filter id="filter4_f_20020_6669" x="3.33936" y="7.26746" width="26.1843" height="17.7651" filterUnits="userSpaceOnUse" color-interpolation-filters="sRGB">
<feFlood flood-opacity="0" result="BackgroundImageFix"/>
<feBlend mode="normal" in="SourceGraphic" in2="BackgroundImageFix" result="shape"/>
<feGaussianBlur stdDeviation="0.75" result="effect1_foregroundBlur_20020_6669"/>
</filter>
<radialGradient id="paint0_radial_20020_6669" cx="0" cy="0" r="1" gradientUnits="userSpaceOnUse" gradientTransform="translate(16.1875 16.1401) rotate(69.0343) scale(3.58082 2.34566)">
<stop stop-color="#4A3938"/>
<stop offset="1" stop-color="#2C1916"/>
</radialGradient>
<radialGradient id="paint1_radial_20020_6669" cx="0" cy="0" r="1" gradientUnits="userSpaceOnUse" gradientTransform="translate(19.5938 17.5151) rotate(-142.242) scale(4.03173 2.5908)">
<stop offset="0.310388" stop-color="#1F100E"/>
<stop offset="1" stop-color="#1F100E" stop-opacity="0"/>
</radialGradient>
<radialGradient id="paint2_radial_20020_6669" cx="0" cy="0" r="1" gradientUnits="userSpaceOnUse" gradientTransform="translate(19.625 13.5777) rotate(81.5642) scale(7.45566 2.10591)">
<stop stop-color="#574543"/>
<stop offset="1" stop-color="#392421"/>
</radialGradient>
<radialGradient id="paint3_radial_20020_6669" cx="0" cy="0" r="1" gradientUnits="userSpaceOnUse" gradientTransform="translate(19.6719 14.1016) rotate(87.7852) scale(1.41512 1.2626)">
<stop stop-color="#574544"/>
<stop offset="0.990417" stop-color="#574544" stop-opacity="0"/>
</radialGradient>
<linearGradient id="paint4_linear_20020_6669" x1="17.5703" y1="17.609" x2="19.2188" y2="17.25" gradientUnits="userSpaceOnUse">
<stop stop-color="#392724"/>
<stop offset="1" stop-color="#392724" stop-opacity="0"/>
</linearGradient>
<radialGradient id="paint5_radial_20020_6669" cx="0" cy="0" r="1" gradientUnits="userSpaceOnUse" gradientTransform="translate(24.1431 12.6257) rotate(101.967) scale(7.33679 1.03879)">
<stop stop-color="#554140"/>
<stop offset="1" stop-color="#412A27"/>
</radialGradient>
<radialGradient id="paint6_radial_20020_6669" cx="0" cy="0" r="1" gradientUnits="userSpaceOnUse" gradientTransform="translate(24.0987 13.2027) rotate(98.1301) scale(1.06209 1.11028)">
<stop stop-color="#5F4A47"/>
<stop offset="1" stop-color="#5F4A47" stop-opacity="0"/>
</radialGradient>
<radialGradient id="paint7_radial_20020_6669" cx="0" cy="0" r="1" gradientUnits="userSpaceOnUse" gradientTransform="translate(22.3929 13.1313) rotate(149.268) scale(21.5432 31.4978)">
<stop stop-color="#4B2E36"/>
<stop offset="1" stop-color="#442B2C"/>
</radialGradient>
<radialGradient id="paint8_radial_20020_6669" cx="0" cy="0" r="1" gradientUnits="userSpaceOnUse" gradientTransform="translate(2.47989 22.5696) rotate(-37.9131) scale(5.33341 11.4794)">
<stop stop-color="#523F3E"/>
<stop offset="1" stop-color="#523F3E" stop-opacity="0"/>
</radialGradient>
<radialGradient id="paint9_radial_20020_6669" cx="0" cy="0" r="1" gradientUnits="userSpaceOnUse" gradientTransform="translate(3.32953 18.6854) rotate(-17.2658) scale(12.541 9.77596)">
<stop stop-color="#5F4949" stop-opacity="0"/>
<stop offset="0.790294" stop-color="#5F4949"/>
</radialGradient>
</defs>
</svg>

<svg width="100%" height="100%" viewBox="0 0 32 32" xmlns="http://www.w3.org/2000/svg"><g filter="url(#a)"><path fill="url(#b)" d="M15.5 14.867c-1.097.392-1.61 1.624-1.219 2.765l1.969 4.836 3.627-1.316-1.683-4.922c-.389-1.146-1.596-1.753-2.693-1.363"/><path fill="url(#c)" d="M15.5 14.867c-1.097.392-1.61 1.624-1.219 2.765l1.969 4.836 3.627-1.316-1.683-4.922c-.389-1.146-1.596-1.753-2.693-1.363"/></g><g filter="url(#d)"><path fill="url(#e)" d="M19.43 12.931a2.07 2.07 0 0 0-1.85 2.262l.491 4.89 4.109-.412-.488-4.893a2.064 2.064 0 0 0-2.262-1.847"/><path fill="url(#f)" d="M19.43 12.931a2.07 2.07 0 0 0-1.85 2.262l.491 4.89 4.109-.412-.488-4.893a2.064 2.064 0 0 0-2.262-1.847"/><path fill="url(#g)" d="M19.43 12.931a2.07 2.07 0 0 0-1.85 2.262l.491 4.89 4.109-.412-.488-4.893a2.064 2.064 0 0 0-2.262-1.847"/></g><g filter="url(#h)"><path fill="url(#i)" d="M24.09 12.045a2.05 2.05 0 0 0-2.388 1.64l-.62 4.098a2 2 0 0 1-.738 1.271l-.219.172h4.717l.89-4.792a2.05 2.05 0 0 0-1.641-2.39"/><path fill="url(#j)" d="M24.09 12.045a2.05 2.05 0 0 0-2.388 1.64l-.62 4.098a2 2 0 0 1-.738 1.271l-.219.172h4.717l.89-4.792a2.05 2.05 0 0 0-1.641-2.39"/></g><g filter="url(#k)"><path fill="url(#l)" d="M12.625 15.954c0 1.702 1.672 2.881 3.484 2.881h3.657c.8 0 1.174-.137 1.656-.62l4.03-3.455c1.062-.986 2.602-1.354 3.772-.25 1.243 1.173.813 2.76-.311 3.772l-5.867 5.1c-1.406 1.315-2.26 1.815-4.01 1.815l-8.715.029c-4.825.029-8.274-2.46-8.274-6.851 0-2.125 1.594-4.368 3-5.782l2.062-2c1.493-1.398 2.664-2.039 4.094-2.414s3.305-.14 3.305-.14c.59 0 1.055-.078 1.562-.383.906-.546 2.197-.545 2.946.203.64.555 1 1.5.718 2.476-.247.616-.51.904-1.039 1.329-1.077.866-2.66 1.216-3.966 1.32-1.448.25-2.104 1.285-2.104 2.97"/></g><path fill="url(#m)" d="M12.625 15.954c0 1.702 1.672 2.881 3.484 2.881h3.657c.8 0 1.174-.137 1.656-.62l4.03-3.455c1.062-.986 2.602-1.354 3.772-.25 1.243 1.173.813 2.76-.311 3.772l-5.867 5.1c-1.406 1.315-2.26 1.815-4.01 1.815l-8.715.029c-4.825.029-8.274-2.46-8.274-6.851 0-2.125 1.594-4.368 3-5.782l2.062-2c1.493-1.398 2.664-2.039 4.094-2.414s3.305-.14 3.305-.14c.59 0 1.055-.078 1.562-.383.906-.546 2.197-.545 2.946.203.64.555 1 1.5.718 2.476-.247.616-.51.904-1.039 1.329-1.077.866-2.66 1.216-3.966 1.32-1.448.25-2.104 1.285-2.104 2.97"/><g filter="url(#n)"><path fill="url(#o)" d="m21.04 22.533 6.74-5.94a.718.718 0 0 0-.947-1.08l-4.854 4.238a2 2 0 0 1-1.497.485l-6.272-.572a4 4 0 0 1-3.637-3.983v-.187a4 4 0 0 1 .949-2.586l.188-.221a3 3 0 0 1 1.952-1.041l1.906-.215a3 3 0 0 0 1.734-.81l.95-.905a.55.55 0 0 0-.715-.834l-.277.213a2.86 2.86 0 0 1-1.992.585l-2.297-.197A4 4 0 0 0 9.78 10.66l-3.79 3.844a4 4 0 0 0-1.048 3.707l.276 1.198a5 5 0 0 0 4.724 3.875l8.334.247a4 4 0 0 0 2.764-.998"/></g><defs><radialGradient id="b" cx="0" cy="0" r="1" gradientTransform="rotate(69.034 -3.64 19.839)scale(3.58082 2.34566)" gradientUnits="userSpaceOnUse"><stop stop-color="#4A3938"/><stop offset="1" stop-color="#2C1916"/></radialGradient><radialGradient id="c" cx="0" cy="0" r="1" gradientTransform="matrix(-3.1875 -2.46874 1.58642 -2.0483 19.594 17.515)" gradientUnits="userSpaceOnUse"><stop offset=".31" stop-color="#1F100E"/><stop offset="1" stop-color="#1F100E" stop-opacity="0"/></radialGradient><radialGradient id="e" cx="0" cy="0" r="1" gradientTransform="matrix(1.09375 7.375 -2.08313 .30894 19.625 13.578)" gradientUnits="userSpaceOnUse"><stop stop-color="#574543"/><stop offset="1" stop-color="#392421"/></radialGradient><radialGradient id="f" cx="0" cy="0" r="1" gradientTransform="rotate(87.785 2.507 17.275)scale(1.41512 1.2626)" gradientUnits="userSpaceOnUse"><stop stop-color="#574544"/><stop offset=".99" stop-color="#574544" stop-opacity="0"/></radialGradient><radialGradient id="i" cx="0" cy="0" r="1" gradientTransform="rotate(101.967 6.956 16.094)scale(7.33679 1.03879)" gradientUnits="userSpaceOnUse"><stop stop-color="#554140"/><stop offset="1" stop-color="#412A27"/></radialGradient><radialGradient id="j" cx="0" cy="0" r="1" gradientTransform="rotate(98.13 6.324 17.052)scale(1.06209 1.11028)" gradientUnits="userSpaceOnUse"><stop stop-color="#5F4A47"/><stop offset="1" stop-color="#5F4A47" stop-opacity="0"/></radialGradient><radialGradient id="l" cx="0" cy="0" r="1" gradientTransform="matrix(-18.51782 11.00907 -16.0961 -27.07447 22.393 13.131)" gradientUnits="userSpaceOnUse"><stop stop-color="#4B2E36"/><stop offset="1" stop-color="#442B2C"/></radialGradient><radialGradient id="m" cx="0" cy="0" r="1" gradientTransform="matrix(4.20776 -3.2772 7.0537 9.0566 2.48 22.57)" gradientUnits="userSpaceOnUse"><stop stop-color="#523F3E"/><stop offset="1" stop-color="#523F3E" stop-opacity="0"/></radialGradient><radialGradient id="o" cx="0" cy="0" r="1" gradientTransform="rotate(-17.266 63.201 -1.622)scale(12.541 9.77596)" gradientUnits="userSpaceOnUse"><stop stop-color="#5F4949" stop-opacity="0"/><stop offset=".79" stop-color="#5F4949"/></radialGradient><filter id="a" width="5.726" height="7.719" x="14.151" y="14.749" color-interpolation-filters="sRGB" filterUnits="userSpaceOnUse"><feFlood flood-opacity="0" result="BackgroundImageFix"/><feBlend in="SourceGraphic" in2="BackgroundImageFix" result="shape"/><feColorMatrix in="SourceAlpha" result="hardAlpha" values="0 0 0 0 0 0 0 0 0 0 0 0 0 0 0 0 0 0 127 0"/><feOffset/><feGaussianBlur stdDeviation=".25"/><feComposite in2="hardAlpha" k2="-1" k3="1" operator="arithmetic"/><feColorMatrix values="0 0 0 0 0.286275 0 0 0 0 0.223529 0 0 0 0 0.211765 0 0 0 1 0"/><feBlend in2="shape" result="effect1_innerShadow_20020_6669"/></filter><filter id="d" width="4.609" height="7.162" x="17.57" y="12.921" color-interpolation-filters="sRGB" filterUnits="userSpaceOnUse"><feFlood flood-opacity="0" result="BackgroundImageFix"/><feBlend in="SourceGraphic" in2="BackgroundImageFix" result="shape"/><feColorMatrix in="SourceAlpha" result="hardAlpha" values="0 0 0 0 0 0 0 0 0 0 0 0 0 0 0 0 0 0 127 0"/><feOffset/><feGaussianBlur stdDeviation=".25"/><feComposite in2="hardAlpha" k2="-1" k3="1" operator="arithmetic"/><feColorMatrix values="0 0 0 0 0.305882 0 0 0 0 0.254902 0 0 0 0 0.25098 0 0 0 1 0"/><feBlend in2="shape" result="effect1_innerShadow_20020_6669"/></filter><filter id="h" width="5.64" height="7.217" x="20.125" y="12.01" color-interpolation-filters="sRGB" filterUnits="userSpaceOnUse"><feFlood flood-opacity="0" result="BackgroundImageFix"/><feBlend in="SourceGraphic" in2="BackgroundImageFix" result="shape"/><feColorMatrix in="SourceAlpha" result="hardAlpha" values="0 0 0 0 0 0 0 0 0 0 0 0 0 0 0 0 0 0 127 0"/><feOffset/><feGaussianBlur stdDeviation=".25"/><feComposite in2="hardAlpha" k2="-1" k3="1" operator="arithmetic"/><feColorMatrix values="0 0 0 0 0.235294 0 0 0 0 0.176471 0 0 0 0 0.164706 0 0 0 1 0"/><feBlend in2="shape" result="effect1_innerShadow_20020_6669"/></filter><filter id="k" width="29.181" height="19.207" x="2.047" y="6.019" color-interpolation-filters="sRGB" filterUnits="userSpaceOnUse"><feFlood flood-opacity="0" result="BackgroundImageFix"/><feBlend in="SourceGraphic" in2="BackgroundImageFix" result="shape"/><feColorMatrix in="SourceAlpha" result="hardAlpha" values="0 0 0 0 0 0 0 0 0 0 0 0 0 0 0 0 0 0 127 0"/><feOffset dx="1.25" dy="-1.25"/><feGaussianBlur stdDeviation=".75"/><feComposite in2="hardAlpha" k2="-1" k3="1" operator="arithmetic"/><feColorMatrix values="0 0 0 0 0.239216 0 0 0 0 0.129412 0 0 0 0 0.196078 0 0 0 1 0"/><feBlend in2="shape" result="effect1_innerShadow_20020_6669"/><feColorMatrix in="SourceAlpha" result="hardAlpha" values="0 0 0 0 0 0 0 0 0 0 0 0 0 0 0 0 0 0 127 0"/><feOffset/><feGaussianBlur stdDeviation=".25"/><feComposite in2="hardAlpha" k2="-1" k3="1" operator="arithmetic"/><feColorMatrix values="0 0 0 0 0.290196 0 0 0 0 0.188235 0 0 0 0 0.305882 0 0 0 1 0"/><feBlend in2="effect1_innerShadow_20020_6669" result="effect2_innerShadow_20020_6669"/></filter><filter id="n" width="26.184" height="17.765" x="3.339" y="7.267" color-interpolation-filters="sRGB" filterUnits="userSpaceOnUse"><feFlood flood-opacity="0" result="BackgroundImageFix"/><feBlend in="SourceGraphic" in2="BackgroundImageFix" result="shape"/><feGaussianBlur result="effect1_foregroundBlur_20020_6669" stdDeviation=".75"/></filter><linearGradient id="g" x1="17.57" x2="19.219" y1="17.609" y2="17.25" gradientUnits="userSpaceOnUse"><stop stop-color="#392724"/><stop offset="1" stop-color="#392724" stop-opacity="0"/></linearGradient></defs></svg>
